svgs/sharp-regular/people-arrows.svg

<svg xmlns="http://www.w3.org/2000/svg" viewBox="0 0 640 512"><!--! Font Awesome Pro 6.6.0 by @fontawesome - https://fontawesome.com License - https://fontawesome.com/license (Commercial License) Copyright 2024 Fonticons, Inc. --><path d="M64 64a64 64 0 1 1 128 0A64 64 0 1 1 64 64zM78 208l-4 96 30.8 0 39.6 39.6L192 391.2l0 96.8 0 24-48 0 0-24 0-136-32 0 0 136 0 24-48 0 0-24 0-136-40 0 2-48 6-144 192 0 1 23.8-16.6 16.6-29.5 29.5L178 208 78 208zM448 488l0-96.8 47.6-47.6L535.2 304l30.8 0-4-96L462 208l-.9 21.9-29.5-29.5L415 183.8l1-23.8 192 0 6 144 2 48-40 0 0 136 0 24-48 0 0-24 0-136-32 0 0 136 0 24-48 0 0-24zm0-424a64 64 0 1 1 128 0A64 64 0 1 1 448 64zM265 257l-23 23 156.1 0-23-23-17-17L392 206.1l17 17 64 64 17 17-17 17-64 64-17 17L358.1 368l17-17 23-23-156.1 0 23 23 17 17L248 401.9l-17-17-64-64-17-17 17-17 64-64 17-17L281.9 240l-17 17z"/></svg>

<svg xmlns="http://www.w3.org/2000/svg" viewBox="0 0 640 512"><!--! Font Awesome Pro 6.4.0 by @fontawesome - https://fontawesome.com License - https://fontawesome.com/license (Commercial License) Copyright 2023 Fonticons, Inc. --><path d="M64 64a64 64 0 1 1 128 0A64 64 0 1 1 64 64zM78 208l-4 96h30.8l39.6 39.6L192 391.2V488v24H144V488 352H112V488v24H64V488 352H24l2-48 6-144H224l1 23.8-16.6 16.6-29.5 29.5L178 208H78zM448 488V391.2l47.6-47.6L535.2 304H566l-4-96H462l-.9 21.9-29.5-29.5L415 183.8l1-23.8H608l6 144 2 48H576V488v24H528V488 352H496V488v24H448V488zm0-424a64 64 0 1 1 128 0A64 64 0 1 1 448 64zM265 257l-23 23H398.1l-23-23-17-17L392 206.1l17 17 64 64 17 17-17 17-64 64-17 17L358.1 368l17-17 23-23H241.9l23 23 17 17L248 401.9l-17-17-64-64-17-17 17-17 64-64 17-17L281.9 240l-17 17z"/></svg>
